!!!!SEGMENT: pl-wtm--2048-fp-7089_stojowski-zygmunt--danses-humoresques-op-12-no-3-mazurka.krn
!!!cenid: 18xx:4456
!!!COM: Stojowski, Zygmunt
!!!COM-rismID: pe41019736
!!!CDT: 1870-1946
!!!CNT: Polish
!!!OTL: Danses Humoresques Op. 12/No. 3. Mazurka
!!!PDT: 1893
!!!AGN: Secular
!!!YEC: Copyright 2022 Narodowy Instytut Fryderyka Chopina (https://polishscores.org)
!!!YEM: License CC-BY-4.0 (https://creativecommons.org/licenses/by/4.0)
!!!SMS-siglum: PL-Wtm
!!!SMS-shelfmark: 2048 fp 7089
!!!SMS-variant:
!!!SMS-altvar:
!!!SMS-shelfwork: W
!!!NIFC-rismSourceID: 1001213922
!!!NIFC-rismChildID: 1001213922
!!!NIFC-islandoraID: pl-wtm:87403
!!!URL-pdf-islandora: https://repozytorium.nifc.pl/islandora/object/pl-wtm%3A87403/datastream/PDF/view
!!!URL-scan: https://polish.musicsources.pl/pl/lokalizacje/galeria/druki-muzyczne/19107/3 @EN{Scan on Polish Music Sources Website} @PL{Skany w portalu Dziedzictwo Muzyki Polskiej w otwartym dostępie}
!!!IIIF:
!!!ONB-nifc:
!!!AIN: 1 piano
!!!key: G-
**kern	**kern	**dynam
*part1	*part1	*part1
*staff2	*staff1	*
*I"PIANO.	*I"PIANO.	*
*I'[pf]	*I'[pf]	*
*ICklav	*ICklav	*
*Ipiano	*Ipiano	*
*clefF4	*clefG2	*
*k[b-e-a-d-g-c-]	*k[b-e-a-d-g-c-]	*
*G-:	*G-:	*
*M3/4	*M3/4	*
=1	=1	=1
!	!LO:TX:a:B:t=Allegreto capriccioso.	!
(4GG-/ 4D-	2.r	p
4B-\)	.	.
4GG-/ 4D-	.	.
=2	=2	=2
(4GG-/ 4D-	2.r	.
4B-\)	.	.
4GG-/ 4D-	.	.
=3	=3	=3
!	!LO:TX:b:i:t=dolce	!
(4GG-/ 4D-	(8b-\L	.
.	8cc-\J	.
4B-\)	4dd-\)	.
4GG-/ 4D-	(8dd-\L	.
.	8ff\J	.
=4	=4	=4
*	*^	*
(4GG-/ 4D-	8ee-/L	2f\	.
.	8dd-/J	.	.
4c-\)	4a-/)	.	.
4GG-/ 4D-	(>8e-'>/L 8g-	4ryy	.
.	8f'>/J) 8a-	.	.
=5	=5	=5	=5
(4GG-/ 4D-	(8b-/L	2g-\	.
.	8cc-/J	.	.
4B-\)	4dd-/)	.	.
4GG-/ 4D-	8gg-~/L	4b-\	.
.	8ff~/J	.	.
!!LO:LB:g=original	!	!	!
=6	=6	=6	=6
*	*	*^	*
(4GG-/ 4D-	(8ee-/L	2f\	4cc-\	.
.	8dd-/J	.	.	.
4c-\)	4a-/)	.	2ryy	.
4GG-/ 4D-	(>8e-'>/L 8g-	4ryy	.	.
.	8f'>/J) 8a-	.	.	.
*	*v	*v	*v	*
=7	=7	=7
!	!LO:TX:b:i:t=rit.	!
4FF/ 4Dn	(8f/L 8b-	.
.	8ddn/J	.
4F\ 4B- 4dn	4f:\) 4b-: 4dd: 4ff:	.
4r	(8ff\L	.
.	8aan\J	.
=8	=8	=8
.	16qqggn/LL	.
.	16qqaan/JJ	.
*	*^	*
4FFF/	8ggny/L	2an\	.
.	8ff/J	.	.
4F\ 4e-	4ccn/)	.	.
!	!LO:TX:b:i:t=a tempo	!	!
4r	8gn'>/L 8b-	4ryy	.
.	8a'>/J 8cc	.	.
=9	=9	=9	=9
4BBB-/	8ddn/L	4f\ 4b-	.
.	8ee-/J	.	.
4F\ 4B- 4dn	4ff/	4ryy	.
(>4CC-X/ 4C-X	(8ff/L	4dd-X\	.
.	8bb-/J	.	.
=10	=10	=10	=10
4BBB-/) 4BB-	8aa-/L	4r	.
!	!LO:TX:b:i:t=poco accel.	!	!
.	8gg-/)	.	.
4G-\ 4d-X	8dd-'/	4g-\	.
.	8ff'/	.	.
4r	8ee-'>/	4ryy	.
.	8dd-'>/J	.	.
!!LO:LB:g=original	!	!	!
=11	=11	=11	=11
4r	8b-'>/L	4ryy	.
.	8dd-'>/	.	.
4CC-'/	8cc-'/	4e-'\	.
.	8b-'/	.	.
!	!LO:TX:b:i:t=poco slentando	!	!
4DD-'/	8f'/	4c-'\	.
.	8b-'/J	.	.
=12	=12	=12	=12
4GGG-/	(8a-/L	4B-\	.
.	8g-/J)	.	.
[2G-^\	4r	4ryy	.
.	4r	4ryy	.
*	*v	*v	*
=13	=13	=13
2G-\]	2.r	.
4r	.	.
=14	=14	=14
!	!LO:TX:a:i:t=a tempo	!
(4GG-/ 4D-	2.r	p
4B-\)	.	.
4GG-/ 4D-	.	.
=15	=15	=15
(4GG-/ 4D-	2.r	.
4B-\)	.	.
4GG-/ 4D-	.	.
!!LO:LB:g=original	!	!
=16	=16	=16
!	!LO:TX:b:i:t=dolce	!
(4GG-/ 4D-	(8b-\L	.
.	8cc-\J	.
4B-\)	4dd-\)	.
4GG-/ 4D-	(8dd-\L	.
.	8ff\J	.
=17	=17	=17
*	*^	*
(4GG-/ 4D-	8ee-/L	2f\	.
.	8dd-/J	.	.
4c-\)	4a-/)	.	.
4GG-/ 4D-	(>8e-'>/L 8g-	4ryy	.
.	8f'>/J) 8a-	.	.
=18	=18	=18	=18
(4GG-/ 4D-	(8b-/L	2g-\	.
.	8cc-/J	.	.
4B-\)	4dd-/)	.	.
4GG-/ 4D-	8gg-~/L	4b-\	.
.	8ff~/J	.	.
=19	=19	=19	=19
*	*	*^	*
(4GG-/ 4D-	(8ee-/L	2f\	4cc-\	.
.	8dd-/J	.	.	.
4c-\)	4a-/)	.	2ryy	.
4GG-/ 4D-	(8e-'/L 8g-	4r	.	.
.	8f'/J) 8a-	.	.	.
*	*v	*v	*v	*
=20	=20	=20
!	!LO:TX:b:i:t=rit.	!
4FF/ 4Dn	(8f/L 8b-	.
.	8ddn/J	.
4F\ 4B- 4dn	4f:\) 4b-: 4dd: 4ff:	.
4r	(8ff\L	.
.	8aan\J	.
!!LO:PB:g=original	!	!
=21	=21	=21
.	16qqggn/LL	.
.	16qqaan/JJ	.
*	*^	*
4FFF/	8ggny/L	2an\	.
.	8ff/J	.	.
4F\ 4e-	4ccn/)	.	.
!	!LO:TX:b:i:t=a tempo	!	!
4r	8gn'>/L 8b-	4ryy	.
.	8a'>/J 8cc	.	.
=22	=22	=22	=22
4BBB-/	8ddn/L	4f\ 4b-	.
.	8ee-/J	.	.
4F\ 4B- 4dn	4ff/	4r	.
(>4CC-X/ 4C-X	(8ff/L	4dd-X\	.
.	8bb-/J	.	.
=23	=23	=23	=23
4BBB-/) 4BB-	8aa-/L	4r	.
.	8gg-/)	.	.
!	!LO:TX:b:i:t=poco accel.	!	!
4G-\ 4d-X	8dd-'/	4g-\	.
.	8ff'/	.	.
4r	8ee-'>/	4ryy	.
.	8dd-'>/J	.	.
!!LO:LB:g=original	!	!	!
=24	=24	=24	=24
4r	8b-'/L	4r	.
.	8dd-'/	.	.
4CC-'/	8cc-'/	4e-\	.
.	8b-'/	.	.
!	!LO:TX:b:i:t=poco slentando	!	!
4DD-'/	8f'/	4c-\	.
.	8b-'/J	.	.
=25	=25	=25	=25
4GGG-/	(8a-/L	4B-\	.
.	8g-/J)	.	.
[2G-^>\	4r	4ryy	.
.	4r	4ryy	.
*	*v	*v	*
=26	=26	=26
2G-\]	2.r	.
4r	.	.
=27||	=27||	=27||
*^	*	*
!	!	!LO:TX:b:i:t=marcato	!
!	!	!LO:TX:a:B:t=Poco più vivo.	!
(8.BB-/L	4EE-^\	4r	f
16E-/Jk	.	.	.
4G-/)	4r	4B-/ 4e- 4g- 4b-	.
8G-^/L	4r	4B-/ 4e- 4g- 4b-	.
8A-/J	.	.	.
!!LO:LB:g=original	!	!	!
=28	=28	=28	=28
(8.F/L	4BB-^\	4r	.
16E-/Jk	.	.	.
4F/)	4r	4B-/ 4dn 4a- 4b-	.
8G-^/L	4r	4B-/ 4d 4a- 4b-	.
8F/J	.	.	.
*v	*v	*	*
=29	=29	=29
(8.E-\L	4r	.
16F\Jk	.	.
4G-\)	4B-/ 4e- 4g- 4b-	.
8A-\L	4e-/ 4g- 4b-	.
8B-\J	.	.
=30	=30	=30
*	*^	*
4r	4r	2d-^\	.
4DD-^/ 4AA-	4f^/ 4a- 4dd-	.	.
4DD-^/ 4AA-	4f^/ 4a- 4dd-	4ryy	.
*	*v	*v	*
=31	=31	=31
*^	*	*
(8.BB-/L	4EE-^\	4r	.
16E-/Jk	.	.	.
4G-/)	4r	4B-/ 4e- 4g- 4b-	.
8G-^/L	4r	4B-/ 4e- 4g- 4b-	.
8A-/J	.	.	.
!!LO:LB:g=original	!	!	!
=32	=32	=32	=32
(8.F/L	4BB-^\	4r	.
16E-/Jk	.	.	.
4F/)	4r	4B-/ 4dn 4a- 4b-	.
8G-^/L	4r	4B-/ 4d 4a- 4b-	.
8F/J	.	.	.
*v	*v	*	*
=33	=33	=33
(8.E-\L	4r	.
16F\Jk	.	.
4G-\)	4B-/ 4e- 4g- 4b-	.
8A-\L	4B-/ 4e- 4g- 4b-	.
8B-\J	.	.
=34	=34	=34
*	*^	*
4r	4r	[2.dn^\	.
!	!	!	!LO:HP:a
4Dn/	4g-/ 4b-	.	>
4DDn/	4g-/ 4b- 4ddn	.	]]
*	*v	*v	*
=35	=35	=35
2.r	2.d;\_<	.
*	*ped	*
!!LO:LB:g=original	!	!
=36	=36	=36
*	*^	*
!	!LO:TX:a:B:t=Tempo I.	!	!
(4GGn/ 4Dn	(>8dnX/L] 8gn 8bn	4ryy	pp
.	8ccn/J	.	.
4Bn\)	4ddn/)	4ryy	.
4DDn/	(8dd/L	4g\	.
.	8ff#X/J	.	.
=37	=37	=37	=37
.	16qqeen/LL	.	.
.	16qqff#X/JJ	.	.
(4AAn/ 4Dn	8eeny/L	2f#X\	.
.	8ddn/J	.	.
4cn\)	4an/)	.	.
4DDn/ 4D	8en/L 8gn	4ryy	.
.	8f#/J 8a	.	.
=38	=38	=38	=38
(4GG-X/ 4D-X	(8b-X/L	4g-X\	.
.	8cc-X/J	.	.
4B-X\)	4dd-X/)	2ryy	.
4DD-X/	(>8dd-/L	.	.
.	8ff/J	.	.
=39	=39	=39	=39
(4AA-/ 4D-	8cc-/L 8ee-	2f\	.
.	8dd-/J	.	.
4c-\)	4a-/)	.	.
4DD-/ 4D-	8e-/L 8g-	4ryy	.
.	8f/J 8a-	.	.
!!LO:LB:g=original	!	!	!
=40	=40	=40	=40
!LO:N:n=2:acc=n#	!	!	!
!LO:N:n=1:acc=n#	!	!	!
4CC#X/ 4C#X	(>8en/L 8an	2ryy	<
!	!LO:N:n=1:acc=n#	!	!
.	8cc#X/J	.	.
4En\ 4An 4en	4een/)	.	.
4r	8ee/L	4a\	.
!	!LO:N:n=1:acc=n#	!	!
.	8gg#X/J	.	.
=41	=41	=41	=41
4BBBn/	(8ff#X/L 8gg#X	4gn\	.
.	8een/J)	.	.
4En\ 4dn 4en	4g#X/ 4bn	2ryy	.
4EEn/	8f#X/L 8an	.	.
.	8g#/J 8b	.	.
=42	=42	=42	=42
4AAAn/ 4AAn	(8cc#X/L	4an\	.
.	8ddn/J	.	.
!LO:N:n=3:acc=n#	!	!	!
4En\ 4An 4c#X	4een/)	4ryy	.
!LO:N:n=1:acc=n-	!LO:TX:b:i:t=rall.	!	!
4CC-X/	(8ffn/L	[4dd-X\	.
.	8bb-X/J)	.	.
!!LO:LB:g=original	!	!	!
=43	=43	=43	=43
4BBB-/	(8aa-X/L	4dd-\]	>
.	8gg-X/)	.	.
!	!LO:TX:a:i:t=a tempo	!	!
4G-\ 4d-	8dd-/	4g-X\	] p
.	8ff/	.	.
4r	8ee-/	4r	.
.	8dd-/J	.	.
=44	=44	=44	=44
4r	8b-/L	4r	.
.	8dd-/	.	.
4CC-/	8cc-/	4e-\	.
.	8b-/	.	.
4DD-/	8f/	4c-\	.
.	8b-/J	.	.
=45	=45	=45	=45
4GGG-/	(8a-/L	4B-\	.
.	8g-/J)	.	.
[2G-\	4r	4ryy	.
.	4r	4ryy	.
*	*v	*v	*
=46	=46	=46
2.G-\]	2.r	.
!!LO:LB:g=original	!	!
=47	=47	=47
*^	*	*
!	!	!LO:TX:a:B:t=Poco più vivo.	!
!	!	!LO:TX:b:i:t=marc.	!
(8.BB-/L	4EE-^\	4r	f
16E-/Jk	.	.	.
4G-/)	4r	4B-/ 4e- 4g- 4b-	.
8G-^/L	4r	4B-/ 4e- 4g- 4b-	.
8A-/J	.	.	.
=48	=48	=48	=48
(8.F/L	4BB-^\	4r	.
16E-/Jk	.	.	.
4F/)	4r	4B-/ 4dn 4a- 4b-	.
8G-^/L	4r	4B-/ 4d 4a- 4b-	.
8F/J	.	.	.
*v	*v	*	*
=49	=49	=49
(>8.E-/L	4r	.
16F/Jk	.	<
4G-/)	4B-/ 4e- 4g- 4b-	.
8A-/L	4e-/ 4g- 4b-	[
8B-/J	.	.
=50	=50	=50
*	*^	*
4r	4r	2.d-^\	.
4DD-/ 4AA-	4f/ 4a- 4dd-	.	.
4DD-/ 4AA-	4f/ 4a- 4dd-	.	.
*	*v	*v	*
!!LO:PB:g=original	!	!
=51	=51	=51
*^	*	*
(8.BB-/L	4EE-\	4r	.
16E-/Jk	.	.	.
4G-/)	4r	4B-/ 4e- 4g- 4b-	.
8G-/L	4r	4B-/ 4e- 4g- 4b-	.
8A-/J	.	.	.
=52	=52	=52	=52
(8.F/L	4BB-\	4r	.
16E-/Jk	.	.	.
4F/)	4r	4B-/ 4dn 4a- 4b-	.
8G-/L	4r	4B-/ 4d 4a- 4b-	.
8F/J	.	.	.
*v	*v	*	*
=53	=53	=53
(>8.E-/L	4r	.
16F/Jk	.	.
4G-/)	4B-/ 4e- 4g- 4b-	.
8A-/L	4B-/ 4e- 4g- 4b-	.
8B-/J	.	.
=54	=54	=54
*	*^	*
4r	4r	[2.dn^\	.
4Dn/	4g-/ 4b-	.	.
4DDn/	4g-/ 4b- 4ddn	.	.
*	*v	*v	*
=55	=55	=55
2.r	2.d;\]	.
!!LO:LB:g=original	!	!
=56	=56	=56
*	*^	*
!	!LO:TX:B:a:t=Tempo I.	!	!
(4EE-/ 4BB-	8gn/L	2B-\ 2e-	pp
.	8a-/J	.	.
4Gn\)	4b-/	.	.
4BBB-/	(8b-/L	4ryy	.
.	8ddn/J)	.	.
=57	=57	=57	=57
(4FF/ 4BB-	(8a-X/L 8ccn	2dn\	.
.	8b-/J)	.	.
4A-\)	4f/	.	.
4BBB-/ 4BB-	8cn'/L 8e-	4ryy	.
.	8d'/J 8f	.	.
=58	=58	=58	=58
(4EE-/ 4BB-	(8g-X/L	2e-\	.
.	8a-/J	.	.
4G-\)	4b-/)	.	.
!	!LO:TX:a:i:t=espress.	!	!
!	!LO:TX:b:i:t=slentando	!	!
4GG-/	8b-~>/L	4ryy	.
.	8cc-~>/J	.	.
=59	=59	=59	=59
(4FF/	(8ee-:/L	4a-:\	.
.	8dd-/J)	.	.
!	!LO:TX:b:i:t=a tempo	!	!
4D-:\) 4c-:	4d-/ 4a-	2ryy	.
4DD-/ 4D-	8e-'>/L 8g-	.	.
.	8f'>/J 8a-	.	.
!!LO:LB:g=original	!	!	!
=60	=60	=60	=60
(4GG-/ 4D-	(8b-/L	2g-\	.
.	8cc-/J	.	.
4B-\)	4dd-/)	.	.
4DD-/ 4D-	8gg-~/L	4b-\	.
.	8ff~/J	.	.
=61	=61	=61	=61
(4AA-/ 4D-	(8ee-/L	4f\ 4cc-	.
.	8dd-/J)	.	.
4D-\) 4c-	4a-/	2ryy	.
4DD-/ 4D-	8e-'/L 8g-	.	.
.	8f'/J 8a-	.	.
=62	=62	=62	=62
4CCn/ 4Cn	(8an/L	2f\	.
.	8b-/	.	.
4C\ 4An	8ccn/)	.	.
.	8ddn'/	.	<
4CC/ 4C	8en'>/ 8b- 8een	4ryy	.
.	8gn'>/J 8ggn	.	[[
=63	=63	=63	=63
4CC-X/ 4C-X	2aa-X/	8a-X\L	.
.	.	8b-\	.
4A-\ 4e-	.	8cc-X\	.
.	.	8dd-X\	>
4r	4ryy	8ee-X\	.
.	.	8bb-\J	]]
!!LO:LB:g=original	!	!	!
=64	=64	=64	=64
!	!LO:TX:b:i:t=a tempo	!	!
4DD-/	(8aa-/L	4r	p
.	8gg-/)	.	.
4D-\ 4B-	8dd-'/	4g-\	.
.	8ff'/	.	.
4r	8ee-'/	4r	.
.	8dd-'/J	.	.
=65	=65	=65	=65
4r	8b-/L	4r	.
.	8dd-/	.	.
4AAA-/	8cc-/	4e-\	.
.	8b-/	.	.
4DD-/	8f/	4c-\	.
.	8b-/J	.	.
=66	=66	=66	=66
4GGG-/	8a-/L	4B-\	.
.	8g-/	.	.
!	!LO:TX:a:i:t=slentando	!	!
4r	8d-/	2ryy	.
.	8B-</	.	.
4r	8A-</	.	.
.	8G-</J	.	.
*	*v	*v	*
=67	=67	=67
2.GG-^/	2.r	.
==	==	==
*-	*-	*-
!!!system-decoration: {(s1,s2)}
!!!RDF**kern: > = above
!!!RDF**kern: < = below
!!!ENC: Andrzej Gręziak
!!!END: 2023-10-22
!!!EED: Jan Barakat
!!!EEV: 2023-11-18
